X:19
T:Installation THO4.019, The
M:6/8
L:1/8
Z:vmp. Peter Dunk 2010/11.from a transcription by Fynn Titford-Mock 2007
B:Thompson's Compleat Collection of 200 Favourite Country Dances Volume IV.
Q:3/8=110
K:A
a2 a aec|f2 f e3|agf edc|Bcd cBA|a2 a aec|f2 f e3|agf edc|BAG A3:|
|:EGB dcB|cea aec|EGB dcB|edc B2 e|a2 a aec|[f2A2] [fA] [e3A3]|agf edc|BAG A3:|
